public/assets/gear-redpink.svg

<svg width="238" height="238" viewBox="0 0 238 238" fill="none" xmlns="http://www.w3.org/2000/svg">
<path d="M119.032 81.0602C98.3258 81.0602 81.5254 97.8606 81.5254 118.581C81.5254 139.28 98.3258 156.11 119.032 156.11C139.738 156.11 156.42 139.28 156.42 118.581C156.42 97.8606 139.745 81.0602 119.032 81.0602ZM194.23 140.125L187.471 156.407L201.122 183.212L184.403 199.931L156.976 186.976L140.694 193.661L132.431 218.962L131.371 222.319H107.745L97.5181 193.757L81.2364 187.043L54.3942 200.635L37.6826 183.931L50.622 156.488L43.9152 140.221L15.3092 130.883V107.265L43.8855 97.0232L50.5924 80.7711L38.5719 57.0415L36.986 53.9289L53.6753 37.2396L81.14 50.1716L97.3995 43.45L105.655 18.164L106.722 14.8143H130.348L140.583 43.4055L156.82 50.1272L183.699 36.506L200.403 53.1953L187.464 80.6155L194.148 96.9046L222.806 106.227V129.839L194.237 140.117L194.23 140.125Z" fill="#C62368"/>
</svg>

<svg width="238" height="238" fill="none" xmlns="http://www.w3.org/2000/svg"><path d="M119.032 81.06c-20.706 0-37.507 16.8-37.507 37.521 0 20.699 16.8 37.529 37.507 37.529 20.706 0 37.388-16.83 37.388-37.529 0-20.72-16.675-37.52-37.388-37.52Zm75.198 59.065-6.759 16.282 13.651 26.805-16.719 16.719-27.427-12.955-16.282 6.685-8.263 25.301-1.06 3.357h-23.626l-10.227-28.562-16.282-6.714-26.842 13.592-16.711-16.704 12.939-27.443-6.707-16.267-28.606-9.338v-23.618l28.577-10.242 6.706-16.252-12.02-23.73-1.586-3.112 16.69-16.69L81.14 50.173 97.4 43.45l8.255-25.286 1.067-3.35h23.626l10.235 28.592 16.237 6.721 26.879-13.621 16.704 16.69-12.939 27.42 6.684 16.289 28.658 9.322v23.612l-28.569 10.278-.007.008Z" fill="#C62368"/></svg>
